!!!SOCIAL_FUNCTION:	miscellaneous songs
!!!PDT:	1957
!!!OTL: No_10_Song_of_Ouwe_Dance.krn
!!!LING_GROUP: Keresan
!!!LANG: Tone
!!!REG: Southwest
**kern
*staff1
=1-
*clefF4
*k[]
*M2/4
(16c\LK
8.G\J)
8G\L
8G\J
=2
4e\
4e\
=3
4d\
(8c\L
8G\J)
=4
*M3/4
4c\
4c\
8c\
8r
=5
*M2/4
4c\
8c\L
8c\J
=6
4e\
4e\
=7
4d\
(8c\L
8G\J)
=8
(4c\
4G\)
=9
*M3/4
4G\
4G\
8G\
8r
=10
*M2/4
(8c\L
8G\J)
8G\L
8G\J
=11
*M3/4
4c\
8d\L
8d\J
12c\L
(12c\
12G\J)
=12
*M2/4
4c\
(8c\L
8G\J)
=13
*M3/4
8G\L
8G\J
4G\
8G\
8r
=14
4G\
8G\L
8G\J
8G\L
8G\J
=15
4c\
8d\L
8d\J
12c\L
(12c\
12G\J)
=16
*M2/4
4c\
(8c\L
8G\J)
=17
*M3/4
8G\L
8G\J
4G\
8A\
8r
=18
*M2/4
4G\
8G\L
8G\J
=19
8r
8G\
8G\
8r
=20
4G\
8G\L
8G\J
==
*-
